icons/android-fill.svg

<svg xmlns="http://www.w3.org/2000/svg" width="24" height="24" fill="none"><g clip-path="url(#a)"><g><path fill="#121212" d="M6.382 3.96801C7.97574 2.69108 9.9578 1.99676 12 2.00001C14.125 2.00001 16.078 2.73601 17.618 3.96801L19.071 2.51501L20.485 3.92901L19.032 5.38201C20.3089 6.97575 21.0033 8.95782 21 11V12H3V11C3 8.87501 3.736 6.92201 4.968 5.38201L3.515 3.93001L4.929 2.51601L6.382 3.96901V3.96801ZM3 14H21V21C21 21.2652 20.8946 21.5196 20.7071 21.7071C20.5196 21.8947 20.2652 22 20 22H4C3.73478 22 3.48043 21.8947 3.29289 21.7071C3.10536 21.5196 3 21.2652 3 21V14ZM9 9.00001C9.26522 9.00001 9.51957 8.89465 9.70711 8.70712C9.89464 8.51958 10 8.26523 10 8.00001C10 7.7348 9.89464 7.48044 9.70711 7.2929C9.51957 7.10537 9.26522 7.00001 9 7.00001C8.73478 7.00001 8.48043 7.10537 8.29289 7.2929C8.10536 7.48044 8 7.7348 8 8.00001C8 8.26523 8.10536 8.51958 8.29289 8.70712C8.48043 8.89465 8.73478 9.00001 9 9.00001ZM15 9.00001C15.2652 9.00001 15.5196 8.89465 15.7071 8.70712C15.8946 8.51958 16 8.26523 16 8.00001C16 7.7348 15.8946 7.48044 15.7071 7.2929C15.5196 7.10537 15.2652 7.00001 15 7.00001C14.7348 7.00001 14.4804 7.10537 14.2929 7.2929C14.1054 7.48044 14 7.7348 14 8.00001C14 8.26523 14.1054 8.51958 14.2929 8.70712C14.4804 8.89465 14.7348 9.00001 15 9.00001Z"/></g></g><defs><clipPath id="a"><rect width="24" height="24" fill="white"/></clipPath></defs></svg>

<svg width="24" height="24" fill="none" xmlns="http://www.w3.org/2000/svg"><g clip-path="url(#a)"><path d="M6.382 3.968A8.962 8.962 0 0 1 12 2c2.125 0 4.078.736 5.618 1.968l1.453-1.453 1.414 1.414-1.453 1.453A8.962 8.962 0 0 1 21 11v1H3v-1c0-2.125.736-4.078 1.968-5.618L3.515 3.93l1.414-1.414 1.453 1.453v-.001ZM3 14h18v7a1 1 0 0 1-1 1H4a1 1 0 0 1-1-1v-7Zm6-5a1 1 0 1 0 0-2 1 1 0 0 0 0 2Zm6 0a1 1 0 1 0 0-2 1 1 0 0 0 0 2Z" /></g><defs><clipPath id="a"><path fill="#fff" d="M0 0h24v24H0z"/></clipPath></defs></svg>
